svg/colored/f-1.svg

<svg xmlns="http://www.w3.org/2000/svg" viewBox="30 -115 580 830"><g>
<!--frame-->
<path d="M610 655v-710q0 -25 -17.5 -42.5t-42.5 -17.5h-460q-25 0 -42.5 17.5t-17.5 42.5v710q0 25 17.5 42.5t42.5 17.5h460q25 0 42.5 -17.5t17.5 -42.5zM550 685h-460 q-13 0 -21.5 -8.5t-8.5 -21.5v-710q0 -13 8.5 -21.5t21.5 -8.5h460q13 0 21.5 8.5t8.5 21.5v710q0 13 -8.5 21.5t-21.5 8.5z" />
<!--index-->
<path d="M382 624l19 -3l77 14l15 -8l-3 -12l-13 3l-38 -5l-23 -20l45 4l13 9l14 -12l-4 -55l25 4l11 -1l10 -16l-18 -6l-14 7l-62 -5l3 -3l-12 -9l37 2l23 -8l6 -9l-32 -17l32 -11l27 -16l-34 -8l-44 24l-63 -22l-23 3 l68 27l-22 18l-37 -8l-20 1l67 35l-42 -4l-26 5l5 8l41 1l-4 57l6 11l15 -4l9 16l-24 -3l-16 7zM405 582v-10l62 4v10zM406 561v-10l61 4v10zM406 541v-9l61 4v9zM419 498l24 -14l21 10l-7 8z" />
<!--flower-with-leave-->
<path d="M367 188q11 -4 30 -14q21 5 42 27q-21 6 -37 6q-2 0 -7.5 -0.5t-8.5 -0.5q-4 -6 -19 -18zM213 181q-8 5 -13 9t-6 5.5t-3 3t-5.5 2t-12.5 0.5q-17 0 -34 -4q26 -30 47 -30q2 0 4.5 1.5t8.5 5.5t14 7zM282 143q-23 -13 -53 -13h-10q-8 -16 -10 -30q21 5 32 8t23.5 12t17.5 23zM336 139q-31 0 -41 4q14 -27 75 -40q-4 32 -8 37q-5 -1 -26 -1zM320 232 q14 10 33 17q2 18 2 20q0 12 -5 24q-23 -11 -34 -30q4 -12 4 -31zM308 230q0 47 -21 70q-23 -28 -23 -68q0 -7 1 -10q9 20 23 27q14 -8 20 -19zM253 230q0 17 3 32q-2 5 -4 7.5t-5.5 5t-5.5 3.5t-9 4t-12 5q-4 -12 -4 -18q0 -10 5 -22q20 -7 32 -17zM171 243q26 -47 56 -57 q14 2 19 2q2 0 5 -0.5t5 -0.5q0 8 4 22q-31 34 -89 34zM289 153q20 5 20 31q0 35 -21 52q-21 -15 -21 -50q0 -20 11 -31q4 -2 11 -2zM344 149q30 0 54 11q-38 24 -67 24q-3 0 -11 -2q0 -23 -14 -30q10 -3 38 -3zM319 194q2 0 6 0.5t6 0.5q13 0 21 -2q25 9 47 51 q-65 -2 -83 -33q0 -1 1.5 -7.5t1.5 -9.5zM291 12q0 -7 -9.5 -20t-32 -25t-50.5 -12q-38 0 -68.5 22t-30.5 49t29 48.5t68 22.5q2 19 10 34q-11 1 -41 8q6 14 10 18q-39 8 -55 46q21 9 58 9q-14 16 -25 40q9 2 22 2q14 0 31 -3q-2 12 -2 18q0 8 8 33l17.5 -7.5t13.5 -6 t7.5 -5t8.5 -7.5q8 24 28 39q14 -13 24 -38q11 15 45 32q9 -36 9 -40t-2 -18q21 5 52 5q-11 -25 -20 -38q29 0 63 -12q-30 -33 -49 -40l10 -7q-27 -15 -45 -18q2 -5 3.5 -13t3 -20l2.5 -20q-1 0 -10.5 2t-12 2.5t-11.5 2.5t-12 3.5t-11 4t-12 5t-9.5 6t-9.5 8t-7 9.5 q-13 -28 -59 -38q29 -9 29 -18q0 -7 -10 -15t-23 -15.5t-17 -11.5q13 -3 27 -3q4 0 12.5 0.5t11.5 0.5q31 0 31 -19zM266 149q-8 12 -10 27q-2 1 -9 1q-16 0 -36 -9.5t-29 -20.5q26 -6 47 -6q18 0 37 8z" />
<!--leaves-->
<path d="M185 553q17 0 17 -17q0 -16 -15 -26t-36 -10t-36 10t-15 26t15 26 t36 10q13 0 13 -6q0 -2 -4 -10.5t-6 -14.5q29 12 31 12z" />
<path d="M272 387q0 -17 -13 -32.5t-25 -15.5q-10 0 -43 37l-2.5 -17.5t-2.5 -14t-3 -9t-6 -7t-11 -2.5q-28 5 -47 23t-19 38q0 24 26 43.5t60 19.5q8 0 11 -1q-5 10 -5 17q0 15 15.5 27t35.5 12t35.5 -12t15.5 -27 q0 -12 -6 -12q-3 0 -7 1l-12 3t-15 3q4 -6 9.5 -11.5l8 -8t2.5 -5.5q0 -10 -23 -9q21 -18 21 -40z" />
<path d="M389 47q0 6 20 6q17 0 30 -11t13 -24t-13 -24t-30 -11t-30 11t-13 24q0 12 8 12q4 0 15 -3.5t18 -4.5q-4 8 -11 15t-7 10z" />
<path d="M402 108q0 18 17 18q12 0 50 -11q-4 6 -11.5 14.5 t-11.5 14.5t-4 10q0 3 1 4q15 5 28 5q27 0 48 -16.5t21 -38.5t-21 -38.5t-48 -16.5t-48 16.5t-21 38.5z" />
<path d="M179 597q0 10 8.5 19t28.5 9q11 0 16 -2q0 -7 -13 -20q8 1 13.5 2.5 t8 2t5.5 0.5q9 0 9 -11q0 -9 -10 -17.5t-29 -8.5q-37 0 -37 26z" />
</g></svg>

<svg xmlns="http://www.w3.org/2000/svg" viewBox="30 -115 580 830"><g>
<!--frame-->
<path d="M610 655v-710q0 -25 -17.5 -42.5t-42.5 -17.5h-460q-25 0 -42.5 17.5t-17.5 42.5v710q0 25 17.5 42.5t42.5 17.5h460q25 0 42.5 -17.5t17.5 -42.5zM550 685h-460 q-13 0 -21.5 -8.5t-8.5 -21.5v-710q0 -13 8.5 -21.5t21.5 -8.5h460q13 0 21.5 8.5t8.5 21.5v710q0 13 -8.5 21.5t-21.5 8.5z" />
<!--index-->
<path d="M382 624l19 -3l77 14l15 -8l-3 -12l-13 3l-38 -5l-23 -20l45 4l13 9l14 -12l-4 -55l25 4l11 -1l10 -16l-18 -6l-14 7l-62 -5l3 -3l-12 -9l37 2l23 -8l6 -9l-32 -17l32 -11l27 -16l-34 -8l-44 24l-63 -22l-23 3 l68 27l-22 18l-37 -8l-20 1l67 35l-42 -4l-26 5l5 8l41 1l-4 57l6 11l15 -4l9 16l-24 -3l-16 7zM405 582v-10l62 4v10zM406 561v-10l61 4v10zM406 541v-9l61 4v9zM419 498l24 -14l21 10l-7 8z" />
<!--flower-with-leave-->
<path d="M367 188Q378 184 397 174Q418 179 439 201Q418 207 402 207Q400 207 394.5 206.5T386 206Q382 200 367 188ZM213 181Q205 186 200 190T194 195.5T191 198.5T185.5 200.5T173 201Q156 201 139 197Q165 167 186 167Q188 167 190.5 168.5T199 174T213 181ZM282 143Q259 130 229 130H219Q211 114 209 100Q230 105 241 108T264.5 120T282 143ZM336 139Q305 139 295 143Q309 116 370 103Q366 135 362 140Q357 139 336 139ZM320 232Q334 242 353 249Q355 267 355 269Q355 281 350 293Q327 282 316 263Q320 251 320 232ZM308 230Q308 277 287 300Q264 272 264 232Q264 225 265 222Q274 242 288 249Q302 241 308 230ZM253 230Q253 247 256 262Q254 267 252 269.5T246.5 274.5T241 278T232 282T220 287Q216 275 216 269Q216 259 221 247Q241 240 253 230ZM171 243Q197 196 227 186Q241 188 246 188Q248 188 251 187.5T256 187Q256 195 260 209Q229 243 171 243ZM289 153Q309 158 309 184Q309 219 288 236Q267 221 267 186Q267 166 278 155Q282 153 289 153ZM344 149Q374 149 398 160Q360 184 331 184Q328 184 320 182Q320 159 306 152Q316 149 344 149ZM319 194Q321 194 325 194.5T331 195Q344 195 352 193Q377 202 399 244Q334 242 316 211Q316 210 317.5 203.5T319 194ZM291 12Q291 5 281.5 -8T249.5 -33T199 -45Q161 -45 130.5 -23T100 26T129 74.5T197 97Q199 116 207 131Q196 132 166 139Q172 153 176 157Q137 165 121 203Q142 212 179 212Q165 228 154 252Q163 254 176 254Q190 254 207 251Q205 263 205 269Q205 277 213 302L230.5 294.5T244 288.5T251.5 283.5T260 276Q268 300 288 315Q302 302 312 277Q323 292 357 309Q366 273 366 269T364 251Q385 256 416 256Q405 231 396 218Q425 218 459 206Q429 173 410 166L420 159Q393 144 375 141Q377 136 378.5 128T381.5 108L384 88Q383 88 373.5 90T361.5 92.5T350 95T338 98.5T327 102.5T315 107.5T305.5 113.5T296 121.5T289 131Q276 103 230 93Q259 84 259 75Q259 68 249 60T226 44.5T209 33Q222 30 236 30Q240 30 248.5 30.5T260 31Q291 31 291 12ZM266 149Q258 161 256 176Q254 177 247 177Q231 177 211 167.5T182 147Q208 141 229 141Q247 141 266 149Z" />
<!--leaves-->
<path d="M185 553q17 0 17 -17q0 -16 -15 -26t-36 -10t-36 10t-15 26t15 26 t36 10q13 0 13 -6q0 -2 -4 -10.5t-6 -14.5q29 12 31 12z" />
<path d="M272 387q0 -17 -13 -32.5t-25 -15.5q-10 0 -43 37l-2.5 -17.5t-2.5 -14t-3 -9t-6 -7t-11 -2.5q-28 5 -47 23t-19 38q0 24 26 43.5t60 19.5q8 0 11 -1q-5 10 -5 17q0 15 15.5 27t35.5 12t35.5 -12t15.5 -27 q0 -12 -6 -12q-3 0 -7 1l-12 3t-15 3q4 -6 9.5 -11.5l8 -8t2.5 -5.5q0 -10 -23 -9q21 -18 21 -40z" />
<path d="M389 47q0 6 20 6q17 0 30 -11t13 -24t-13 -24t-30 -11t-30 11t-13 24q0 12 8 12q4 0 15 -3.5t18 -4.5q-4 8 -11 15t-7 10z" />
<path d="M402 108q0 18 17 18q12 0 50 -11q-4 6 -11.5 14.5 t-11.5 14.5t-4 10q0 3 1 4q15 5 28 5q27 0 48 -16.5t21 -38.5t-21 -38.5t-48 -16.5t-48 16.5t-21 38.5z" />
<path d="M179 597q0 10 8.5 19t28.5 9q11 0 16 -2q0 -7 -13 -20q8 1 13.5 2.5 t8 2t5.5 0.5q9 0 9 -11q0 -9 -10 -17.5t-29 -8.5q-37 0 -37 26z" />
</g></svg>
